styles/1/Numix/16/actions/purple-add-folders-to-archive.svg

<?xml version="1.0" encoding="UTF-8" standalone="no"?>
<svg
   xmlns:dc="http://purl.org/dc/elements/1.1/"
   xmlns:cc="http://creativecommons.org/ns#"
   xmlns:rdf="http://www.w3.org/1999/02/22-rdf-syntax-ns#"
   xmlns:svg="http://www.w3.org/2000/svg"
   xmlns="http://www.w3.org/2000/svg"
   xmlns:sodipodi="http://sodipodi.sourceforge.net/DTD/sodipodi-0.dtd"
   xmlns:inkscape="http://www.inkscape.org/namespaces/inkscape"
   width="16"
   height="16"
   viewBox="0 0 16 16"
   id="svg2"
   version="1.1"
   inkscape:version="0.91 r"
   sodipodi:docname="purple-add-folders-to-archive.svg">
  <metadata
     id="metadata24">
    <rdf:RDF>
      <cc:Work
         rdf:about="">
        <dc:format>image/svg+xml</dc:format>
        <dc:type
           rdf:resource="http://purl.org/dc/dcmitype/StillImage" />
        <dc:title />
      </cc:Work>
    </rdf:RDF>
  </metadata>
  <defs
     id="defs22" />
  <sodipodi:namedview
     pagecolor="#ffffff"
     bordercolor="#666666"
     borderopacity="1"
     objecttolerance="10"
     gridtolerance="10"
     guidetolerance="10"
     inkscape:pageopacity="0"
     inkscape:pageshadow="2"
     inkscape:window-width="1366"
     inkscape:window-height="747"
     id="namedview20"
     showgrid="true"
     inkscape:zoom="7.375"
     inkscape:cx="20.052258"
     inkscape:cy="13.761658"
     inkscape:window-x="0"
     inkscape:window-y="21"
     inkscape:window-maximized="1"
     inkscape:current-layer="svg2">
    <inkscape:grid
       type="xygrid"
       id="grid3085" />
  </sodipodi:namedview>
  <path
     style="font-size:medium;font-style:normal;font-variant:normal;font-weight:normal;font-stretch:normal;text-indent:0;text-align:start;text-decoration:none;line-height:normal;letter-spacing:normal;word-spacing:normal;text-transform:none;direction:ltr;block-progression:tb;writing-mode:lr-tb;text-anchor:start;baseline-shift:baseline;color:#000000;fill:#7e57c2;fill-opacity:1;fill-rule:nonzero;stroke:none;stroke-width:1.21926904;marker:none;visibility:visible;display:inline;overflow:visible;enable-background:accumulate;font-family:Sans;-inkscape-font-specification:Sans;opacity:0.4"
     d="M 0.4375 4 C 0.196082 4.046681 0.002416 4.302984 0 4.5625 L 0 15.40625 C -0.00733 15.711103 0.242968 16.007753 0.53125 16 L 9 16 L 9 14 L 6 14 L 6 9 L 9 9 L 9 6 L 8 6 L 8 4.71875 C 7.992825 4.4235331 7.654171 3.9924885 7.375 4 L 0.53125 4 C 0.49492 3.99604 0.473835 3.99604 0.4375 4 z "
     id="path3912-0" />
  <path
     style="font-size:medium;font-style:normal;font-variant:normal;font-weight:normal;font-stretch:normal;text-indent:0;text-align:start;text-decoration:none;line-height:normal;letter-spacing:normal;word-spacing:normal;text-transform:none;direction:ltr;block-progression:tb;writing-mode:lr-tb;text-anchor:start;baseline-shift:baseline;color:#000000;fill:#7e57c2;fill-opacity:1;fill-rule:nonzero;stroke:none;stroke-width:1.21926904;marker:none;visibility:visible;display:inline;overflow:visible;enable-background:accumulate;font-family:Sans;-inkscape-font-specification:Sans"
     d="M 2.4375 0 C 2.1960824 0.04668144 2.0024158 0.30298395 2 0.5625 L 2 11.40625 C 1.99267 11.711103 2.2429678 12.007753 2.53125 12 L 6 12 L 6 9 L 9 9 L 9 6 L 14 6 L 14 9 L 16 9 L 16 2.59375 C 16.00735 2.2888954 15.725782 1.9922465 15.4375 2 L 10 2 L 10 0.71875 C 9.992825 0.42353308 9.6541709 -0.00751154 9.375 0 L 2.53125 0 C 2.49492 -0.00396026 2.4738302 -0.00396026 2.4375 0 z "
     id="path3912" />
  <path
     style="fill:#859900"
     d="m 15.99996,9.9999265 -3,0 0,-2.9999999 -3,0 0,2.9999999 -3.0000003,0 0,2.9999995 3.0000003,0 0,3 3,0 0,-3 3,0 z"
     id="path18" />
</svg>

<svg xmlns="http://www.w3.org/2000/svg" viewBox="0 0 16 16">
 <path d="m 0.438 4 c -0.241 0.047 -0.435 0.303 -0.438 0.563 l 0 10.844 c -0.007 0.305 0.243 0.602 0.531 0.594 l 8.469 0 l 0 -2 l -3 0 l 0 -5 l 3 0 l 0 -3 l -1 0 l 0 -1.281 c -0.007 -0.295 -0.346 -0.726 -0.625 -0.719 l -6.844 0 c -0.036 -0.004 -0.057 -0.004 -0.094 0 z" style="visibility:visible;fill:#7e57c2;opacity:0.4;fill-opacity:1;stroke:none;display:inline;color:#000;fill-rule:nonzero"/>
 <path d="m 2.438 0 c -0.241 0.047 -0.435 0.303 -0.438 0.563 l 0 10.844 c -0.007 0.305 0.243 0.602 0.531 0.594 l 3.469 0 l 0 -3 l 3 0 l 0 -3 l 5 0 l 0 3 l 2 0 l 0 -6.406 c 0.007 -0.305 -0.274 -0.602 -0.563 -0.594 l -5.438 0 l 0 -1.281 c -0.007 -0.295 -0.346 -0.726 -0.625 -0.719 l -6.844 0 c -0.036 -0.004 -0.057 -0.004 -0.094 0 z" style="visibility:visible;fill:#7e57c2;fill-opacity:1;stroke:none;display:inline;color:#000;fill-rule:nonzero"/>
 <path d="m 16 10 -3 0 0 -3 -3 0 0 3 -3 0 0 3 3 0 0 3 3 0 0 -3 3 0 z" style="fill:#859900"/>
</svg>
